icons/pharmacy.svg

<svg width="48" height="48" viewBox="0 0 48 48" fill="none" xmlns="http://www.w3.org/2000/svg">
<path fill-rule="evenodd" clip-rule="evenodd" d="M18.8616 8.35311C18.294 9.68491 18.2484 11.3896 18.3053 13H37C37.5523 13 38.0059 13.4497 37.9431 13.9984C37.5578 17.363 35.2443 20.291 31.8773 22.0948C31.9622 22.4879 32 22.893 32 23.3029C32 25.1219 30.6229 26.5584 29.1515 27.4697C28.2096 28.0531 27.108 28.5021 26 28.7586V26.6925C26.7331 26.4798 27.4607 26.1643 28.0985 25.7694C29.3771 24.9775 30 24.0655 30 23.3029C30 23.1794 29.9952 23.0607 29.9856 22.9468C28.4887 23.5038 26.846 23.8585 25.1147 23.9656V32H23.1147V23.9784C16.2169 23.6402 10.6728 19.3774 10.0569 13.9984C9.99403 13.4497 10.4477 13 11 13H16.3037C16.2473 11.3671 16.283 9.30221 17.0217 7.56895C17.446 6.57357 18.112 5.65956 19.1353 5.00307C20.155 4.34892 21.4522 4 23.0578 4C25.025 4 26.6246 4.71406 27.7141 5.40578C28.261 5.75301 28.6893 6.1007 28.9838 6.36461C29.1314 6.49688 29.2465 6.60903 29.3271 6.69086C29.3674 6.73181 29.3992 6.76526 29.4222 6.78994C29.4337 6.80229 29.4431 6.81246 29.4502 6.82028L29.4592 6.83025L29.4624 6.83389L29.4637 6.83536C29.464 6.83566 29.4649 6.8366 28.7303 7.48788L29.4649 6.83661C29.8312 7.24987 29.7932 7.88189 29.38 8.24827C28.9673 8.61412 28.3365 8.57676 27.9699 8.16518L27.9692 8.16441L27.9595 8.1539C27.9483 8.14197 27.9292 8.12171 27.9022 8.09429C27.8481 8.03941 27.7631 7.95625 27.6492 7.85414C27.4205 7.6493 27.0796 7.37199 26.6421 7.09422C25.7628 6.53594 24.533 6 23.0578 6C21.7424 6 20.8427 6.28393 20.2152 6.68645C19.5914 7.08664 19.1599 7.65315 18.8616 8.35311ZM12.3058 15C13.4806 18.7594 17.9728 22 24 22C30.0271 22 34.5194 18.7594 35.6942 15H12.3058Z" fill="black"/>
<path d="M16 42V44H32V42H28.981C29.6406 41.1881 30 40.1652 30 38.9999C30 37.455 29.3684 36.1605 28.2428 35.2761C27.1438 34.4126 25.6545 33.9999 24 33.9999C22.5168 33.9999 21.2002 33.8696 20.2811 33.4611C19.8399 33.265 19.5338 33.0232 19.3349 32.739C19.1407 32.4616 19 32.0752 19 31.4999C19 30.9247 19.1407 30.5382 19.3349 30.2609C19.5338 29.9767 19.8399 29.7349 20.2811 29.5387C20.7579 29.3269 21.3416 29.1898 22 29.107V27.0935C21.1057 27.189 20.2297 27.373 19.4689 27.7111C18.7851 28.015 18.1537 28.4607 17.6964 29.114C17.2343 29.7741 17 30.5752 17 31.4999C17 32.4247 17.2343 33.2257 17.6964 33.8859C18.1537 34.5392 18.7851 34.9849 19.4689 35.2887C20.7998 35.8803 22.4831 35.9999 24 35.9999C25.3455 35.9999 26.3562 36.3373 27.0072 36.8488C27.6316 37.3394 28 38.0448 28 38.9999C28 39.955 27.6316 40.6605 27.0072 41.1511C26.5505 41.5099 25.9168 41.783 25.1147 41.9141V38H23.1147V41.9999L16 42Z" fill="black"/>
</svg>

<svg
  xmlns="http://www.w3.org/2000/svg"
  width="24"
  height="24"
  viewBox="0 0 24 24"
  fill="none"
  stroke="currentColor"
  stroke-width="2"
  stroke-linecap="round"
  stroke-linejoin="round"
>
  <path
    fill-rule="evenodd"
    d="M18.862 8.353c-.568 1.332-.614 3.037-.557 4.647H37c.552 0 1.006.45.943.998-.385 3.365-2.699 6.293-6.066 8.097.085.393.123.798.123 1.208 0 1.819-1.377 3.255-2.849 4.167A10.6 10.6 0 0 1 26 28.759v-2.067a8.6 8.6 0 0 0 2.099-.923C29.377 24.978 30 24.066 30 23.303q0-.185-.014-.356c-1.497.557-3.14.912-4.871 1.019V32h-2v-8.022c-6.898-.338-12.442-4.6-13.058-9.98-.063-.548.39-.998.943-.998h5.304c-.057-1.633-.021-3.698.718-5.431.424-.995 1.09-1.91 2.113-2.566C20.155 4.35 21.452 4 23.058 4c1.967 0 3.567.714 4.656 1.406.547.347.975.695 1.27.959a8 8 0 0 1 .466.455l.01.01.002.004.002.001s0 .002-.734.653l.735-.651a1 1 0 0 1-1.495 1.328l-.01-.011-.058-.06a6 6 0 0 0-.253-.24 8 8 0 0 0-1.007-.76C25.762 6.536 24.533 6 23.058 6c-1.316 0-2.215.284-2.843.686-.624.4-1.055.967-1.353 1.667M12.306 15c1.175 3.76 5.667 7 11.694 7s10.52-3.24 11.694-7z"
    clip-rule="evenodd"
  />
  <path d="M16 42v2h16v-2h-3.019c.66-.812 1.019-1.835 1.019-3 0-1.545-.632-2.84-1.757-3.724C27.143 34.413 25.655 34 24 34c-1.483 0-2.8-.13-3.719-.539-.441-.196-.747-.438-.946-.722-.194-.277-.335-.664-.335-1.24 0-.574.14-.96.335-1.238.199-.284.505-.526.946-.722.477-.212 1.06-.35 1.719-.432v-2.014c-.894.096-1.77.28-2.531.618-.684.304-1.315.75-1.773 1.403-.462.66-.696 1.461-.696 2.386s.234 1.726.696 2.386c.458.653 1.09 1.099 1.773 1.403 1.33.591 3.014.71 4.531.71 1.346 0 2.356.338 3.007.85.625.49.993 1.196.993 2.15 0 .956-.368 1.661-.993 2.152-.457.359-1.09.632-1.892.763V38h-2v4z" />
</svg>
